X: 100266
M: 3/8
L: 1/16
K: A
uE2 |\
|: ue2 |\
aeceAe | decdBc | ABGAFG | EFCEAg |\
aeceAe | decdBc | (dc)dcdB | A4 :|
|: (uAB) |\
c2{d}cBc2 | c2(.c2.c2) | B2{c}BAB2 | B2(c2e2) |\
agfedc | fedcBA | GABcdB | A4 :|
|: uE2 |\


